icons-rebrand/svg/application-regular.svg

<svg width="32" height="32" viewBox="0 0 32 32" fill="none" xmlns="http://www.w3.org/2000/svg">
<path d="M29.7471 10.985V10C29.7455 8.74071 29.2445 7.53345 28.3541 6.643C27.4636 5.75254 26.2564 5.25159 24.9971 5.25H6.99707C5.7377 5.25132 4.53029 5.75219 3.63978 6.6427C2.74926 7.53322 2.24839 8.74063 2.24707 10V22C2.24839 23.2594 2.74926 24.4668 3.63978 25.3573C4.53029 26.2478 5.7377 26.7487 6.99707 26.75H9.00007C9.19898 26.75 9.38975 26.671 9.5304 26.5303C9.67105 26.3897 9.75007 26.1989 9.75007 26C9.75007 25.8011 9.67105 25.6103 9.5304 25.4697C9.38975 25.329 9.19898 25.25 9.00007 25.25H6.99707C6.13544 25.2489 5.30941 24.9062 4.70014 24.2969C4.09088 23.6877 3.74813 22.8616 3.74707 22V11.75H28.2471V22C28.246 22.8616 27.9033 23.6877 27.294 24.2969C26.6847 24.9062 25.8587 25.2489 24.9971 25.25H23.0001C22.8012 25.25 22.6104 25.329 22.4697 25.4697C22.3291 25.6103 22.2501 25.8011 22.2501 26C22.2501 26.1989 22.3291 26.3897 22.4697 26.5303C22.6104 26.671 22.8012 26.75 23.0001 26.75H24.9971C26.2564 26.7487 27.4639 26.2478 28.3544 25.3573C29.2449 24.4668 29.7457 23.2594 29.7471 22V11.014L29.7501 11L29.7471 10.985ZM28.2471 10.249H3.74707V10C3.74813 9.13837 4.09088 8.31234 4.70014 7.70307C5.30941 7.09381 6.13544 6.75106 6.99707 6.75H24.9971C25.8587 6.75106 26.6847 7.09381 27.294 7.70307C27.9033 8.31234 28.246 9.13837 28.2471 10V10.25V10.249Z" fill="#0F0F0F"/>
<path d="M12.7599 16.399C12.6423 16.311 12.5015 16.2595 12.3549 16.2508C12.2083 16.2421 12.0624 16.2767 11.9353 16.3501C11.8081 16.4236 11.7054 16.5328 11.6397 16.6642C11.574 16.7955 11.5484 16.9432 11.5659 17.089L12.8159 27.567C12.8302 27.6905 12.875 27.8084 12.9464 27.9102C13.0177 28.012 13.1133 28.0944 13.2244 28.15C13.3356 28.2056 13.4589 28.2326 13.5831 28.2286C13.7073 28.2246 13.8286 28.1897 13.9359 28.127L16.8859 26.424L18.5899 29.374C18.6929 29.5389 18.856 29.6573 19.0446 29.7043C19.2333 29.7513 19.4328 29.7232 19.6011 29.6259C19.7695 29.5287 19.8935 29.3698 19.947 29.1829C20.0005 28.996 19.9793 28.7956 19.8879 28.624L18.1849 25.674L21.1349 23.971C21.2424 23.909 21.3329 23.8213 21.3982 23.7158C21.4634 23.6102 21.5015 23.4901 21.5089 23.3662C21.5164 23.2423 21.4929 23.1185 21.4407 23.0059C21.3886 22.8933 21.3092 22.7954 21.2099 22.721L12.7599 16.4V16.399ZM14.1699 26.26L13.2629 18.649L19.4009 23.241L14.1699 26.261V26.26Z" fill="#0F0F0F"/>
</svg>

<svg width="32" height="32" viewBox="0 0 32 32" fill="none" xmlns="http://www.w3.org/2000/svg"><path d="M29.747 10.985V10a4.756 4.756 0 0 0-4.75-4.75h-18A4.755 4.755 0 0 0 2.247 10v12a4.755 4.755 0 0 0 4.75 4.75H9a.75.75 0 1 0 0-1.5H6.997A3.254 3.254 0 0 1 3.747 22V11.75h24.5V22a3.254 3.254 0 0 1-3.25 3.25H23a.75.75 0 0 0 0 1.5h1.997a4.755 4.755 0 0 0 4.75-4.75V11.014L29.75 11l-.003-.015zm-1.5-.736h-24.5V10a3.254 3.254 0 0 1 3.25-3.25h18a3.254 3.254 0 0 1 3.25 3.25v.25z" fill="#0F0F0F"/><path d="M12.76 16.399a.75.75 0 0 0-1.194.69l1.25 10.478a.748.748 0 0 0 1.12.56l2.95-1.703 1.704 2.95a.75.75 0 0 0 1.298-.75l-1.703-2.95 2.95-1.703a.75.75 0 0 0 .075-1.25L12.76 16.4zm1.41 9.861l-.907-7.611 6.138 4.592-5.231 3.02z" fill="#0F0F0F"/></svg>
